packages/core/src/svgs/tokens/branded/ZAT.svg

<svg width="24" height="24" viewBox="0 0 24 24" fill="none" xmlns="http://www.w3.org/2000/svg">
<path d="M14.7475 2V5.66467C14.7416 6.41171 12.2888 6.92934 11.8122 6.85288C11.1652 6.747 10.5535 6.45288 9.94175 6.20583C9.85349 6.16465 9.76524 6.13524 9.67108 6.1176C9.3005 6.02936 9.3064 5.52936 9.3064 5.21173V2H14.7475Z" fill="#B9FF01"/>
<path d="M8.73573 2.35881C8.79455 2.35293 8.81808 2.40587 8.79455 2.51764C8.77691 2.57646 8.77102 2.63528 8.77102 2.67645V5.90583C8.71219 5.99995 8.66514 6.0823 8.59455 6.16465C7.92388 6.89186 7.25134 7.61736 6.57693 8.34111C6.57195 8.34285 6.56659 8.34322 6.56142 8.34219C6.55624 8.34116 6.55144 8.33875 6.54752 8.33522L6.54163 8.31757C6.5181 8.02346 6.50045 7.72347 6.49458 7.42935C6.49407 7.21412 6.4542 7.00081 6.37694 6.79994C6.28281 6.57054 6.1181 6.38818 5.8887 6.25289L5.12401 5.80583C5.09984 5.79138 5.07963 5.77117 5.06518 5.74702V5.7176H5.07107L5.0887 5.71172L8.73573 2.35881ZM15.2945 2.37058C15.3533 2.39998 15.4121 2.4294 15.4474 2.47646L18.9708 5.71172C19.0063 5.74702 19.0003 5.77054 18.9592 5.79407C18.5709 5.99995 17.918 6.31171 17.7415 6.77053C17.6179 7.08818 17.5651 7.41758 17.5768 7.77052C17.5886 7.94698 17.5592 8.09993 17.5297 8.25874C17.507 8.25309 17.4866 8.2408 17.4709 8.22345C17.1119 7.84536 16.7472 7.47277 16.3768 7.10583C15.9679 6.70096 15.594 6.26213 15.2592 5.79407L15.2886 5.47055C15.2957 5.21962 15.2997 4.96863 15.3004 4.71762C15.3082 3.9333 15.3043 3.14889 15.2886 2.3647L15.2945 2.37058ZM5.88281 14.7057C5.88281 14.7351 5.87105 14.7646 5.85341 14.794C5.83613 14.8187 5.8114 14.8372 5.78282 14.847L4.99459 15.0822C4.9886 15.0725 4.98273 15.0626 4.97694 15.0529C4.97106 15.047 4.94165 15.0351 4.94165 15.0233V6.48819C4.94754 6.46465 4.94165 6.44701 4.94165 6.44701H4.9593L4.98283 6.44112C5.27106 6.55876 5.49459 6.7117 5.64753 6.91171C5.83576 7.14111 5.88281 7.40582 5.88281 7.70582V14.7057ZM19.0238 6.48819C19.0474 6.50582 19.0591 6.52347 19.0591 6.55876V14.994C19.0591 15.0586 19.0238 15.0881 18.9651 15.0763C18.7755 15.0548 18.5941 14.9882 18.4356 14.8822C18.1768 14.7057 18.1357 14.3174 18.1416 14.0057V8.58816C18.1357 8.1764 18.1416 7.78228 18.1473 7.4117C18.1505 7.33003 18.1705 7.2499 18.2062 7.1764L18.3238 6.95289C18.4651 6.71759 18.6944 6.63524 18.918 6.52936L19.0238 6.49406V6.48819ZM11.0239 7.27052C11.0357 7.28817 11.0593 7.29406 11.0828 7.28817C11.0918 7.28353 11.102 7.2811 11.1121 7.2811C11.1224 7.2811 11.1324 7.28353 11.1416 7.28817C11.1769 7.30582 11.2004 7.33523 11.2122 7.37641C10.1769 7.38817 9.1416 7.38817 8.11809 7.37641C8.10632 7.37641 8.09455 7.37052 8.08868 7.35288L8.72984 6.68818C8.74916 6.668 8.77361 6.65351 8.80057 6.64625C8.82753 6.63899 8.85597 6.63925 8.88279 6.647L11.0239 7.27052ZM15.9592 7.38228H13.271C13.2592 7.36465 13.2651 7.34699 13.2769 7.32347L15.2004 6.64111C15.2181 6.63562 15.237 6.63549 15.2548 6.64072C15.2725 6.64595 15.2885 6.65632 15.3004 6.67053L15.9592 7.37641V7.38228Z" fill="black"/>
<path d="M4.35348 12.5881V12.5999C4.35046 12.6033 4.34625 12.6054 4.34172 12.6058H4.32996C3.94481 12.5152 3.60475 12.2898 3.37113 11.9704C3.27954 11.8072 3.20842 11.6335 3.15938 11.4528C3.04172 10.9822 2.90643 10.5176 2.75349 10.0588C2.42408 9.05874 2.6182 8.07052 3.04761 7.12936C3.06078 7.10099 3.08039 7.0761 3.10492 7.05668C3.12943 7.03727 3.15816 7.02389 3.18879 7.01759C3.54172 6.92935 3.93583 6.947 4.30642 6.91171C4.32996 6.91171 4.35348 6.92348 4.35348 6.95289V12.594V12.5881ZM21.3004 10.3058L21.2121 10.6352C21.0003 11.4176 20.4886 12.2705 19.6709 12.6235C19.6683 12.625 19.6653 12.6258 19.6621 12.6258C19.6591 12.6258 19.6559 12.625 19.6533 12.6235C19.6507 12.6213 19.6489 12.6185 19.6478 12.6154C19.6469 12.6124 19.6467 12.6089 19.6474 12.6058V7.97051C19.6709 7.71169 19.6062 7.40583 19.765 7.24112C20.0886 6.89995 20.5533 6.96465 20.9885 6.99994C21.0062 6.99994 21.0239 7.0117 21.0297 7.02935C21.4239 8.09993 21.5121 9.18816 21.3004 10.3058ZM8.08874 7.35289C8.08874 7.37052 8.10638 7.37641 8.11815 7.37641C9.14166 7.38817 10.1769 7.38817 11.2122 7.37641C11.7064 7.43524 12.2005 7.45288 12.7064 7.43524C12.7533 7.43524 12.8475 7.41759 12.9887 7.39406C13.0827 7.37641 13.1769 7.37052 13.271 7.38229H15.9593C15.9416 7.38229 15.9475 7.37052 15.9828 7.35289L16.8886 8.34699L16.4298 7.8764C16.4203 7.86789 16.4091 7.86141 16.397 7.85736C16.3848 7.85333 16.372 7.85179 16.3592 7.85287H7.65344C7.6358 7.85287 7.62991 7.85287 7.62991 7.82935L8.08874 7.35289Z" fill="#B9FF01"/>
<path d="M7.65319 7.85284H16.359C16.3884 7.85284 16.412 7.85873 16.4295 7.88226L16.8884 8.34696C16.8884 8.36461 16.9002 8.38224 16.9178 8.3999C16.9108 8.40684 16.9029 8.41278 16.8943 8.41755C16.8866 8.41932 16.8785 8.41932 16.8707 8.41755H7.19438C7.17673 8.41755 7.15321 8.41166 7.11792 8.38813C7.13232 8.37935 7.14442 8.36724 7.15321 8.35284L7.65319 7.85284Z" fill="black"/>
<path d="M7.20057 8.38815C7.23586 8.41168 7.25938 8.42344 7.28291 8.42344H16.7945L16.824 8.41757L16.8475 8.39992C16.8652 8.39992 16.8769 8.39992 16.8887 8.41168L17.2652 8.82344C17.2945 8.85285 17.3004 8.88227 17.2827 8.89992H6.74174C6.72998 8.89992 6.72998 8.89992 6.72998 8.88815L7.20057 8.38815Z" fill="#B9FF01"/>
<path d="M17.2944 8.8999V9.42929H6.7063V8.8999H17.2944Z" fill="black"/>
<path d="M6.7063 9.42929H17.2944V9.9175H6.7063V9.42929Z" fill="#B9FF01"/>
<path d="M6.7063 9.91748H17.2944V10.5351H6.7063V9.91748Z" fill="black"/>
<path d="M6.7063 10.5352H17.2944V11.0176H6.7063V10.5352Z" fill="#B9FF01"/>
<path d="M6.7063 11.0175H10.8238L10.7415 11.1352L10.3533 11.5822C10.3282 11.6108 10.2975 11.634 10.2632 11.6501C10.2287 11.6663 10.1914 11.6753 10.1534 11.6764H6.7063V11.0175ZM13.165 11.0175H17.2944V11.6646H14.0121C13.9532 11.6646 13.9004 11.6646 13.8415 11.6528C13.821 11.6491 13.8025 11.6388 13.7885 11.6234L13.3592 11.1352C13.3382 11.1311 13.3183 11.1231 13.3003 11.1116C13.2807 11.094 13.2628 11.0742 13.2473 11.0528C13.2256 11.0306 13.1961 11.018 13.165 11.0175Z" fill="black"/>
<path d="M17.6414 12.9881C17.6708 13.5175 17.6649 14.0292 17.6178 14.5469C17.5707 15.094 17.8532 15.4292 18.359 15.4881C18.5649 15.5115 18.7707 15.5998 18.9943 15.7469C19.0061 15.7586 19.0061 15.7645 18.9943 15.7763L16.9531 18.2821C16.9296 18.3057 16.9178 18.3057 16.9237 18.2703C17.0046 17.6583 16.8957 17.0363 16.612 16.4881C16.4355 16.1587 16.2414 15.8352 16.0297 15.5174C15.7062 15.0057 15.8002 14.4293 16.1002 13.9293C16.1885 13.788 16.365 13.6058 16.6296 13.3822C16.9679 13.1058 17.3013 12.8234 17.6296 12.5352L17.6355 12.5411V12.9881H17.6414ZM5.84153 15.4646C6.25329 15.2881 6.46505 14.9528 6.47094 14.4764C6.47094 14.1822 6.45917 13.8645 6.42387 13.5175C6.40224 13.2607 6.42412 13.0023 6.48857 12.7527C6.49216 12.7507 6.49622 12.7496 6.50034 12.7496C6.50447 12.7496 6.50853 12.7507 6.51211 12.7527C6.87092 12.9292 7.2121 13.141 7.52974 13.3822C8.0768 13.7998 8.36503 14.3763 8.16503 15.0763C8.00032 15.6646 7.64739 16.1351 7.32974 16.6292C7.18857 16.8528 7.11799 17.1351 7.1121 17.3999C7.10399 17.6215 7.05823 17.8404 6.97681 18.0469C6.97131 18.0522 6.96392 18.0552 6.95622 18.0552C6.94852 18.0552 6.94113 18.0522 6.93564 18.0469L4.99447 15.6821C4.97095 15.6469 4.97682 15.6351 5.018 15.6351C5.30036 15.6351 5.57683 15.5763 5.84153 15.4587V15.4646Z" fill="#B9FF01"/>
<path d="M14.9417 13.7999V15.4763L15.4828 17.0939C15.524 17.1528 15.5299 17.2116 15.5299 17.2821V19.0586H8.47119V17.3822C8.47119 17.2763 8.50648 17.1469 8.56531 17.0528L9.03589 15.4175C9.06531 15.3704 9.05942 15.3116 9.05942 15.2587V14.0057C9.05942 13.9528 9.10059 13.8999 9.13001 13.8587L10.0712 12.6587C10.08 12.6442 10.0919 12.6318 10.1062 12.6228C10.1205 12.6136 10.1367 12.6078 10.1536 12.6057C10.2417 12.6057 10.3183 12.588 10.4006 12.588H13.9946C14.0064 12.588 14.0123 12.6057 14.0182 12.6057L14.0299 12.6235L14.9417 13.7999Z" fill="black"/>
<path d="M11.4716 14.9234L10.7186 14.5292V14.5233L10.7127 14.5117L10.7068 13.7881V13.7764C10.7068 13.7716 10.7087 13.7672 10.712 13.7639C10.7153 13.7606 10.7199 13.7587 10.7245 13.7587C10.7292 13.7587 10.7337 13.7606 10.737 13.7639C10.7403 13.7672 10.7421 13.7716 10.7421 13.7764L11.501 14.8939C11.5056 14.8956 11.5095 14.8989 11.5117 14.9033C11.5139 14.9078 11.5143 14.9129 11.5128 14.9175C11.5111 14.9222 11.5078 14.926 11.5034 14.9282C11.499 14.9304 11.4938 14.9308 11.4892 14.9293H11.4774L11.4716 14.9234ZM13.3951 13.7764L13.3892 14.5117V14.5233H13.3774L12.6127 14.9234H12.6009C12.5974 14.9221 12.5942 14.9197 12.5921 14.9166C12.5899 14.9134 12.589 14.9096 12.5891 14.9057V14.8939L13.3539 13.7646H13.3657C13.3689 13.7617 13.3731 13.7601 13.3774 13.7601C13.3818 13.7601 13.3859 13.7617 13.3892 13.7646V13.7764H13.3951ZM15.4303 19.7058C15.2127 20.2527 15.0185 20.788 14.7832 21.3233C14.7186 21.4763 14.6067 21.6351 14.4479 21.6763C12.8598 22.0704 11.195 22.1586 9.67742 21.6351C9.34801 21.5175 9.17745 21.1645 9.04805 20.8351C8.89511 20.4469 8.7304 20.0645 8.5657 19.688C8.55393 19.6646 8.55981 19.6469 8.58335 19.6469H15.4186L15.4303 19.6646C15.4334 19.6709 15.4351 19.678 15.4351 19.6852C15.4351 19.6923 15.4334 19.6993 15.4303 19.7058Z" fill="#B9FF01"/>
</svg>

<svg xmlns="http://www.w3.org/2000/svg" width="24" height="24" fill="none" viewBox="0 0 24 24">
    <path fill="#B9FF01" d="M14.748 2v3.665c-.006.747-2.46 1.264-2.936 1.188-.647-.106-1.258-.4-1.87-.647a1 1 0 0 0-.27-.088c-.372-.089-.366-.589-.366-.906V2z"/>
    <path fill="#000" d="M8.736 2.359c.059-.006.082.047.059.159a.6.6 0 0 0-.024.158v3.23c-.059.094-.106.176-.176.259Q7.588 7.255 6.577 8.34a.03.03 0 0 1-.03-.006l-.005-.017a15 15 0 0 1-.047-.889c0-.215-.04-.428-.118-.63a1.13 1.13 0 0 0-.488-.546l-.765-.447a.2.2 0 0 1-.059-.059v-.03h.006l.018-.005zm6.558.012a.4.4 0 0 1 .153.105l3.524 3.236c.035.035.03.059-.012.082-.388.206-1.041.518-1.218.977a2.5 2.5 0 0 0-.164 1c.012.176-.018.329-.047.488a.12.12 0 0 1-.06-.036q-.537-.567-1.093-1.117a10 10 0 0 1-1.118-1.312l.03-.323q.01-.377.011-.753.012-1.178-.011-2.353zm-9.41 12.335q-.001.045-.03.088a.14.14 0 0 1-.07.053l-.788.235-.018-.03c-.006-.005-.035-.017-.035-.029V6.488c.006-.023 0-.041 0-.041h.017l.024-.006c.288.118.512.27.665.47.188.23.235.495.235.795zm13.14-8.218a.08.08 0 0 1 .036.07v8.436c0 .065-.035.094-.094.082a1.2 1.2 0 0 1-.53-.194c-.258-.176-.3-.565-.293-.876V8.588c-.006-.412 0-.806.005-1.176a.6.6 0 0 1 .06-.236l.117-.223c.141-.235.37-.318.594-.424l.106-.035zm-8 .783c.013.017.036.023.06.017a.06.06 0 0 1 .059 0 .14.14 0 0 1 .07.088c-1.035.012-2.07.012-3.094 0q-.019.002-.03-.023l.642-.665a.15.15 0 0 1 .153-.041zm4.936.111h-2.688c-.012-.017-.006-.035.006-.059l1.923-.682a.09.09 0 0 1 .1.03l.66.705z"/>
    <path fill="#B9FF01" d="M4.353 12.588v.012a.02.02 0 0 1-.011.006H4.33a1.66 1.66 0 0 1-.959-.636 2.3 2.3 0 0 1-.212-.517 19 19 0 0 0-.406-1.394c-.329-1-.135-1.988.295-2.93a.2.2 0 0 1 .14-.111c.354-.089.748-.071 1.118-.106.024 0 .047.011.047.04v5.642zM21.3 10.306l-.088.33c-.212.782-.723 1.635-1.541 1.988l-.009.002-.009-.002-.005-.009V7.971c.023-.26-.042-.565.117-.73.324-.341.788-.276 1.223-.241.018 0 .036.012.042.03a6.04 6.04 0 0 1 .27 3.276M8.09 7.353c0 .018.017.023.03.023 1.023.012 2.058.012 3.093 0 .494.06.989.077 1.494.06.047 0 .142-.018.283-.042a.9.9 0 0 1 .282-.012h2.688q-.027 0 .024-.03l.906.995-.46-.47a.1.1 0 0 0-.07-.024H7.653c-.017 0-.023 0-.023-.024z"/>
    <path fill="#000" d="M7.653 7.853h8.706c.03 0 .053.006.07.03l.46.464q.001.027.029.053a.1.1 0 0 1-.024.018h-9.7c-.017 0-.04-.006-.076-.03a.1.1 0 0 0 .035-.035z"/>
    <path fill="#B9FF01" d="M7.2 8.388c.036.024.06.035.083.035h9.511l.03-.005.023-.018c.018 0 .03 0 .042.012l.376.411c.03.03.035.06.018.077H6.742c-.012 0-.012 0-.012-.012z"/>
    <path fill="#000" d="M17.294 8.9v.53H6.706V8.9z"/>
    <path fill="#B9FF01" d="M6.706 9.43h10.588v.488H6.706z"/>
    <path fill="#000" d="M6.706 9.917h10.588v.618H6.706z"/>
    <path fill="#B9FF01" d="M6.706 10.535h10.588v.483H6.706z"/>
    <path fill="#000" d="M6.706 11.018h4.118l-.082.117-.389.447a.28.28 0 0 1-.2.094H6.706zm6.459 0h4.13v.647h-3.283c-.059 0-.112 0-.17-.012a.1.1 0 0 1-.053-.03l-.43-.488a.2.2 0 0 1-.059-.023.4.4 0 0 1-.053-.06.12.12 0 0 0-.082-.034"/>
    <path fill="#B9FF01" d="M17.641 12.988c.03.53.024 1.041-.023 1.559-.047.547.235.882.741.941.206.024.412.112.635.259.012.012.012.018 0 .03l-2.04 2.505c-.024.024-.036.024-.03-.012a3 3 0 0 0-.312-1.782 12 12 0 0 0-.582-.97c-.324-.512-.23-1.089.07-1.589q.132-.211.53-.547.507-.414 1-.847l.006.006v.447zm-11.8 2.477c.412-.177.624-.512.63-.989 0-.294-.012-.612-.047-.959a2.3 2.3 0 0 1 .065-.764.02.02 0 0 1 .023 0q.54.265 1.018.63c.547.417.835.993.635 1.693-.165.589-.518 1.06-.835 1.553a1.54 1.54 0 0 0-.218.77 2 2 0 0 1-.135.648.03.03 0 0 1-.041 0l-1.942-2.365c-.023-.035-.017-.047.024-.047q.425 0 .824-.176z"/>
    <path fill="#000" d="M14.942 13.8v1.676l.54 1.618a.3.3 0 0 1 .048.188v1.777H8.47v-1.677c0-.106.035-.235.094-.33l.47-1.634c.03-.048.024-.106.024-.16v-1.252c0-.053.042-.106.071-.147l.941-1.2a.11.11 0 0 1 .082-.053c.089 0 .165-.018.248-.018h3.594c.011 0 .017.018.023.018l.012.018z"/>
    <path fill="#B9FF01" d="m11.472 14.923-.753-.394v-.006l-.006-.011-.006-.724v-.012q0-.007.005-.012a.018.018 0 0 1 .03.013l.759 1.117a.02.02 0 0 1 .012.024.02.02 0 0 1-.024.012h-.012zm1.923-1.147-.006.736v.011h-.012l-.764.4H12.6l-.009-.006-.003-.011v-.012l.765-1.13h.012a.02.02 0 0 1 .023 0v.012zm2.035 5.93c-.217.547-.412 1.082-.647 1.617-.064.153-.176.312-.335.353-1.588.394-3.253.483-4.77-.04-.33-.119-.5-.471-.63-.8-.153-.39-.318-.771-.482-1.148-.012-.023-.006-.041.017-.041h6.836l.011.018a.05.05 0 0 1 0 .04"/>
</svg>
